build/img/svg/icon-yandex.svg

<svg width="15" height="22" viewBox="0 0 15 22" fill="none" xmlns="http://www.w3.org/2000/svg">
<path d="M11.1057 3.00698C9.65813 3.16851 8.31718 3.14382 7.089 3.4911C4.43209 4.24346 3.51465 7.5251 5.26279 9.96892C5.84091 10.7776 6.68181 11.4317 7.48036 12.064C8.23248 12.6597 9.08715 13.1345 9.97704 13.7144C9.17849 14.8872 8.41514 16.0199 7.63955 17.1448C6.65374 18.5749 5.6766 20.01 4.64997 21.4139C4.45454 21.6807 4.05297 21.944 3.73151 21.9622C2.57272 22.0279 1.40729 21.9879 0 21.9879L5.10256 14.6461C4.57444 14.2282 4.05194 13.829 3.54628 13.4111C1.04602 11.3437 0.0607204 8.73787 0.701602 5.6148C1.27972 2.79505 3.19727 1.03789 6.00419 0.603668C8.93867 0.149682 11.9538 0.183274 15 0V21.9188H11.1032L11.1057 3.00698Z" fill="black"/>
</svg>

<svg width="15" height="22" fill="none" xmlns="http://www.w3.org/2000/svg"><path d="M11.106 3.007c-1.448.162-2.789.137-4.017.484-2.657.752-3.574 4.034-1.826 6.478.578.809 1.419 1.463 2.217 2.095.752.596 1.607 1.07 2.497 1.65-.799 1.173-1.562 2.306-2.337 3.43-.986 1.43-1.963 2.866-2.99 4.27-.195.267-.597.53-.918.548-1.16.066-2.325.026-3.732.026l5.103-7.342c-.529-.418-1.051-.817-1.557-1.235C1.046 11.344.061 8.738.702 5.615 1.28 2.795 3.197 1.038 6.004.604 8.94.15 11.954.184 15 0v21.919h-3.897l.003-18.912z" fill="#000"/></svg>
